spyder/images/dark/go_to_editor.svg

<?xml version="1.0" encoding="UTF-8" standalone="no"?>
<svg
   xml:space="preserve"
   width="24"
   height="24"
   version="1.1"
   id="svg1"
   sodipodi:docname="go_to_editor.svg"
   inkscape:version="1.3.2 (091e20ef0f, 2023-11-25, custom)"
   xmlns:inkscape="http://www.inkscape.org/namespaces/inkscape"
   xmlns:sodipodi="http://sodipodi.sourceforge.net/DTD/sodipodi-0.dtd"
   xmlns="http://www.w3.org/2000/svg"
   xmlns:svg="http://www.w3.org/2000/svg"><defs
   id="defs1" /><sodipodi:namedview
   id="namedview1"
   pagecolor="#ffffff"
   bordercolor="#000000"
   borderopacity="0.25"
   inkscape:showpageshadow="2"
   inkscape:pageopacity="0.0"
   inkscape:pagecheckerboard="0"
   inkscape:deskcolor="#d1d1d1"
   inkscape:zoom="2.7226563"
   inkscape:cx="38.381635"
   inkscape:cy="60.051649"
   inkscape:window-width="1920"
   inkscape:window-height="1151"
   inkscape:window-x="1920"
   inkscape:window-y="182"
   inkscape:window-maximized="1"
   inkscape:current-layer="svg1" />
    <path
   d="M 10.205547,10.880625 H 1.999922 v 2.23875 h 8.205625 v 3.357969 L 15.802422,12 10.205547,7.5225 Z M 22.000078,6 v 13.760312 c 0,0.625 -0.216875,1.154688 -0.650937,1.588594 C 20.915078,21.782969 20.385547,22 19.760547,22 H 7.573047 C 6.948047,22 6.4185158,21.782812 5.9844533,21.348906 5.550547,20.914844 5.3335158,20.385312 5.3335158,19.760312 V 18 H 7.573047 v 1.760313 h 12.1875 V 8.1978125 H 15.802422 V 4.1875 H 7.573047 V 6 H 5.333672 V 4.1875 c 0,-0.5903125 0.2170313,-1.1025 0.6509375,-1.5365625 C 6.418672,2.2170312 6.9482033,2 7.5732033,2 H 18.000235 Z"
   style="fill:#fafafa;stroke-width:7.16388"
   id="path1" />
</svg>

<svg xmlns="http://www.w3.org/2000/svg" xml:space="preserve" width="24" height="24">
    <path d="M10.206 10.88H2v2.24h8.206v3.357L15.802 12l-5.596-4.477ZM22 6v13.76q0 .938-.65 1.589a2.16 2.16 0 0 1-1.59.651H7.574a2.16 2.16 0 0 1-1.589-.651 2.16 2.16 0 0 1-.65-1.589V18h2.239v1.76h12.188V8.198h-3.959v-4.01h-8.23V6h-2.24V4.188q0-.885.652-1.537Q6.635 2 7.573 2H18Z" style="fill:#fafafa;stroke-width:7.16388"/>
</svg>
